-----BEGIN PGP SIGNATURE-----

iQGzBAABCgAdFiEEol/g8XWJa/pjbxoFHeZFsZJoNd0FAmpYouEACgkQHeZFsZJo
Nd38KwwA1rQ3Hd/cgodMtkUQhevGKEylglfvdIj7eNg52HMRqq2qEWAOZ/NesBCT
O2c1DOyFe0QqSKmwEiXl1HKWMcMiqyxdue3wIRKIrQesemrt+2fQL+EZ04Hzjasp
IaqWz6OdKWVRaGEiekbQAWwzdxd8V3+f5av2/ULDxUGMBd5CZbseq3AAk9dEUmQe
j2mgGhnyALVmx2BOXIO1r7nd9SqJf5Dw0+qF0EHkg65UWrA83EXmU2aOhZf0GFY6
OKXBrUe19nCIjZb0jfxpm5PBandvpjLwDf9lfVr6Y9hn36gT/KYRecaJNdCcwbpg
sJjNXtP5P6/clksnka1sjC3J7S8xK36NHLXodksSXkYYczlI3mYxSMhWyZVG8Zwr
pQ2zkNJ1nndwnkhmy6erTUO0+E0zXIRT4p0QfxFnjELP8Yf0sYz6Ge+4s8ksUTCi
Ic+G/j0Q6TTQWCl8iMogjU9pniMExxtrpTCGzc+6vOILPe6UT9/TFAa95neDQM4S
o02K9ymh
=jYry
-----END PGP SIGNATURE-----
